; generated by PrusaSlicer 2.7.1 on 2024-01-24 at 22:38:27 UTC

; 

; external perimeters extrusion width = 0.42mm
; perimeters extrusion width = 0.44mm
; infill extrusion width = 0.44mm
; solid infill extrusion width = 0.44mm
; top infill extrusion width = 0.40mm
; first layer extrusion width = 0.44mm

;TYPE:Custom
M413 S0 ;  disable power loss recovery
G90 ; use absolute coordinates
M83 ; extruder relative mode
M140 S55 ; set final bed temp
M104 S150 ; set temporary nozzle temp to prevent oozing during homing
G4 S10 ; allow partial nozzle warmup
G28 ; home all axis
G1 Z50 F240
G1 X2 Y10 F3000
M104 S215 ; set final nozzle temp
M190 S55 ; wait for bed temp to stabilize
M109 S215 ; wait for nozzle temp to stabilize
G1 Z0.28 F240
G92 E0
G1 Y140 E10 F1500 ; prime the nozzle
G1 X2.3 F5000
G92 E0
G1 Y10 E10 F1200 ; prime the nozzle
G92 E0
M420 S1 ; use the probed mesh
G21 ; set units to millimeters
G90 ; use absolute coordinates
M83 ; use relative distances for extrusion
; Filament gcode
M107
;LAYER_CHANGE
;Z:0.2
;HEIGHT:0.2
;BEFORE_LAYER_CHANGE
G92 E0
;0.2


G1 E-5 F3600
G1 Z.2 F9000
;AFTER_LAYER_CHANGE
;0.2
G1 X86.966 Y78.082
G1 Z.2
G1 E5 F2400
M204 S500
;TYPE:Skirt/Brim
;WIDTH:0.44
G1 F1200
G1 X87.859 Y77.135 E.04298
G1 X88.893 Y76.278 E.04434
G1 X89.991 Y75.575 E.04305
G1 X90.989 Y75.084 E.03672
G1 X92.203 Y74.646 E.04261
G1 X93.502 Y74.349 E.044
G1 X95.225 Y74.206 E.05708
G1 X124.892 Y74.208 E.97952
G1 X126.943 Y74.432 E.06812
G1 X128.749 Y74.975 E.06227
G1 X130.42 Y75.816 E.06177
G1 X131.892 Y76.908 E.06051
G1 X133.183 Y78.263 E.06179
G1 X134.201 Y79.787 E.06051
G1 X134.959 Y81.498 E.06179
G1 X135.439 Y83.507 E.0682
G1 X135.544 Y85 E.04942
G1 X135.542 Y135.142 E1.65555
G1 X135.477 Y136.199 E.03497
G1 X135.254 Y137.484 E.04306
G1 X134.864 Y138.77 E.04437
G1 X134.445 Y139.743 E.03498
G1 X133.803 Y140.878 E.04305
G1 X133.002 Y141.957 E.04437
G1 X132.122 Y142.883 E.04218
G1 X131.065 Y143.753 E.0452
G1 X129.963 Y144.451 E.04307
G1 X128.749 Y145.025 E.04434
G1 X127.51 Y145.434 E.04308
G1 X125.975 Y145.723 E.05157
G1 X124.75 Y145.794 E.04051
G1 X94.862 Y145.786 E.98682
G1 X93.807 Y145.696 E.03496
G1 X92.49 Y145.434 E.04434
G1 X91.48 Y145.114 E.03498
G1 X90.507 Y144.695 E.03498
G1 X89.372 Y144.053 E.04305
G1 X88.127 Y143.109 E.05159
G1 X87.158 Y142.142 E.0452
G1 X86.37 Y141.135 E.04222
G1 X85.665 Y139.962 E.04519
G1 X85.136 Y138.77 E.04306
G1 X84.693 Y137.245 E.05243
G1 X84.496 Y135.916 E.04436
G1 X84.458 Y84.858 E1.6858
G1 X84.527 Y83.776 E.0358
G1 X84.735 Y82.567 E.0405
G1 X85.033 Y81.521 E.03591
G1 X85.555 Y80.257 E.04515
G1 X86.197 Y79.122 E.04305
G1 X86.93 Y78.131 E.0407
G1 X87.249 Y78.366 F9000
G1 F1200
G1 X87.267 Y78.34 E.00104
G1 X88.134 Y77.422 E.04169
G1 X89.123 Y76.602 E.04242
G1 X90.188 Y75.92 E.04176
G1 X91.394 Y75.345 E.04411
G1 X92.547 Y74.962 E.04011
G1 X93.808 Y74.705 E.04249
G1 X95.225 Y74.604 E.0469
G1 X124.882 Y74.605 E.97919
G1 X126.858 Y74.82 E.06563
G1 X128.606 Y75.345 E.06026
G1 X130.208 Y76.152 E.05923
G1 X131.633 Y77.209 E.05858
G1 X132.87 Y78.508 E.05923
G1 X133.856 Y79.983 E.05858
G1 X134.582 Y81.623 E.05922
G1 X135.045 Y83.558 E.06569
G1 X135.147 Y85 E.04773
G1 X135.145 Y135.132 E1.65522
G1 X135.082 Y136.151 E.03371
G1 X134.866 Y137.397 E.04175
G1 X134.493 Y138.627 E.04244
G1 X134.091 Y139.564 E.03366
G1 X133.467 Y140.665 E.04178
G1 X132.702 Y141.697 E.04241
G1 X131.847 Y142.597 E.04099
G1 X130.836 Y143.429 E.04323
G1 X129.767 Y144.106 E.04178
G1 X128.606 Y144.655 E.0424
G1 X127.404 Y145.052 E.0418
G1 X125.925 Y145.329 E.04968
G1 X124.75 Y145.397 E.03886
G1 X94.872 Y145.389 E.98649
G1 X93.856 Y145.302 E.03367
G1 X92.596 Y145.052 E.04241
G1 X91.623 Y144.743 E.03371
G1 X90.686 Y144.341 E.03366
G1 X89.585 Y143.717 E.04178
G1 X88.385 Y142.807 E.04972
G1 X87.459 Y141.883 E.04319
G1 X86.694 Y140.905 E.041
G1 X86.02 Y139.784 E.04319
G1 X85.507 Y138.627 E.04179
G1 X85.08 Y137.158 E.05051
G1 X84.892 Y135.887 E.04242
G1 X84.855 Y84.868 E1.68451
G1 X84.921 Y83.825 E.03451
G1 X85.123 Y82.652 E.0393
G1 X85.41 Y81.646 E.03454
G1 X85.909 Y80.436 E.04321
G1 X86.533 Y79.335 E.04178
G1 X87.213 Y78.414 E.0378
G1 E-3.5 F3600
;WIPE_START
G1 F7200
G1 X87.249 Y78.366 E-.0285
G1 X87.267 Y78.34 E-.01502
G1 X88.134 Y77.422 E-.59978
G1 X89.123 Y76.602 E-.61024
G1 X89.56 Y76.322 E-.24646
;WIPE_END
G1 X128.736 Y106.486 F9000
G1 E5 F2400
;TYPE:Perimeter
;WIDTH:0.439999
G1 F1200
G1 X109.586 Y106.498 E.63228
G1 X109.414 Y106.513 E.0057
G1 X108.875 Y106.624 E.01817
G1 X108.226 Y106.881 E.02305
G1 X107.64 Y107.262 E.02308
G1 X107.141 Y107.752 E.02309
G1 X106.749 Y108.331 E.02309
G1 X106.479 Y108.976 E.02309
G1 X106.343 Y109.662 E.02309
G1 X106.341 Y110.336 E.02225
G1 X106.438 Y110.878 E.01818
G1 X106.679 Y111.533 E.02304
G1 X107.029 Y112.11 E.02228
G1 X107.375 Y112.505 E.01734
G1 X107.797 Y112.857 E.01814
G1 X108.38 Y113.196 E.02227
G1 X108.898 Y113.383 E.01818
G1 X109.586 Y113.502 E.02305
G1 X128.736 Y113.514 E.63228
G1 X128.736 Y126.244 E.42031
G1 X128.736 Y134.874 E.28494
G1 X128.716 Y135.378 E.01665
G1 X128.614 Y135.969 E.0198
G1 X128.434 Y136.516 E.01901
G1 X128.175 Y137.026 E.01889
G1 X127.806 Y137.54 E.02089
G1 X127.435 Y137.944 E.01811
G1 X126.963 Y138.312 E.01976
G1 X126.453 Y138.601 E.01935
G1 X126.065 Y138.75 E.01372
G1 X125.539 Y138.905 E.01811
G1 X124.933 Y138.98 E.02016
G1 X95.376 Y138.986 E.97589
G1 X94.872 Y138.966 E.01665
G1 X94.27 Y138.862 E.02017
G1 X93.752 Y138.681 E.01812
G1 X93.204 Y138.414 E.02013
G1 X92.71 Y138.056 E.02014
G1 X92.306 Y137.685 E.01811
G1 X91.938 Y137.213 E.01976
G1 X91.733 Y136.851 E.01374
G1 X91.503 Y136.354 E.01808
G1 X91.343 Y135.777 E.01977
G1 X91.27 Y135.183 E.01976
G1 X91.264 Y85.126 E1.65274
G1 X91.272 Y84.871 E.00842
G1 X91.357 Y84.2 E.02233
G1 X91.495 Y83.67 E.01808
G1 X91.742 Y83.111 E.02018
G1 X92.122 Y82.552 E.02232
G1 X92.576 Y82.06 E.0221
G1 X93.028 Y81.693 E.01922
G1 X93.538 Y81.403 E.01937
G1 X94.073 Y81.198 E.01892
G1 X94.627 Y81.077 E.01872
G1 X95.275 Y81.014 E.0215
G1 X124.911 Y81.02 E.9785
G1 X125.528 Y81.094 E.02052
G1 X126.092 Y81.25 E.01932
G1 X126.617 Y81.482 E.01895
G1 X127.286 Y81.929 E.02657
G1 X127.693 Y82.317 E.01857
G1 X128.172 Y82.963 E.02655
G1 X128.424 Y83.465 E.01855
G1 X128.655 Y84.223 E.02616
G1 X128.736 Y85.049 E.0274
G1 X128.736 Y106.426 E.70581
G1 X129.133 Y106.883 F9000
G1 F1200
G1 X109.517 Y106.899 E.64767
G1 X109.011 Y106.997 E.01702
G1 X108.433 Y107.22 E.02046
G1 X107.91 Y107.553 E.02047
G1 X107.463 Y107.984 E.0205
G1 X107.111 Y108.494 E.02046
G1 X106.866 Y109.064 E.02048
G1 X106.74 Y109.672 E.0205
G1 X106.728 Y110.225 E.01826
G1 X106.814 Y110.751 E.0176
G1 X107.023 Y111.335 E.02048
G1 X107.274 Y111.77 E.01658
G1 X107.606 Y112.177 E.01734
G1 X108.004 Y112.518 E.0173
G1 X108.495 Y112.813 E.01891
G1 X108.976 Y112.993 E.01696
G1 X109.586 Y113.105 E.02048
G1 X129.133 Y113.117 E.64539
G1 X129.133 Y126.244 E.43342
G1 X129.133 Y134.874 E.28494
G1 X129.111 Y135.422 E.01811
G1 X129 Y136.065 E.02154
G1 X128.804 Y136.662 E.02075
G1 X128.516 Y137.23 E.02103
G1 X128.119 Y137.785 E.02253
G1 X127.698 Y138.242 E.02052
G1 X127.184 Y138.643 E.02152
G1 X126.623 Y138.961 E.02129
G1 X126.208 Y139.121 E.01469
G1 X125.612 Y139.296 E.02051
G1 X124.957 Y139.377 E.02179
G1 X95.101 Y139.375 E.98576
G1 X94.503 Y139.305 E.01988
G1 X93.979 Y139.188 E.01773
G1 X93.479 Y138.995 E.0177
G1 X93 Y138.754 E.0177
G1 X92.465 Y138.369 E.02176
G1 X92.008 Y137.948 E.02052
G1 X91.607 Y137.434 E.02152
G1 X91.388 Y137.047 E.01468
G1 X91.127 Y136.483 E.02052
G1 X90.953 Y135.855 E.02152
G1 X90.873 Y135.207 E.02156
G1 X90.867 Y85.126 E1.65354
G1 X90.875 Y84.851 E.00908
G1 X90.945 Y84.253 E.01988
G1 X91.062 Y83.729 E.01773
G1 X91.305 Y83.117 E.02174
G1 X91.602 Y82.572 E.02049
G1 X92.004 Y82.057 E.02157
G1 X92.302 Y81.772 E.01361
G1 X92.811 Y81.36 E.02162
G1 X93.363 Y81.046 E.02097
G1 X93.957 Y80.818 E.02101
G1 X94.559 Y80.685 E.02036
G1 X95.265 Y80.617 E.02342
G1 X124.934 Y80.622 E.97959
G1 X125.605 Y80.703 E.02232
G1 X126.226 Y80.875 E.02128
G1 X126.809 Y81.133 E.02105
G1 X127.535 Y81.618 E.02883
G1 X127.991 Y82.053 E.02081
G1 X128.511 Y82.754 E.02882
G1 X128.795 Y83.317 E.02082
G1 X129.046 Y84.145 E.02857
G1 X129.133 Y85.03 E.02936
G1 X129.133 Y106.823 E.71954
G1 X129.53 Y107.28 F9000
;TYPE:External perimeter
G1 F1200
G1 X109.586 Y107.292 E.6585
G1 X109.147 Y107.37 E.01472
G1 X108.64 Y107.559 E.01787
G1 X108.18 Y107.844 E.01787
G1 X107.786 Y108.216 E.01789
G1 X107.473 Y108.658 E.01788
G1 X107.254 Y109.153 E.01787
G1 X107.137 Y109.682 E.01789
G1 X107.124 Y110.183 E.01655
G1 X107.191 Y110.625 E.01476
G1 X107.367 Y111.136 E.01784
G1 X107.618 Y111.571 E.01658
G1 X107.88 Y111.888 E.01358
G1 X108.212 Y112.18 E.0146
G1 X108.64 Y112.441 E.01655
G1 X109.055 Y112.604 E.01472
G1 X109.586 Y112.708 E.01787
G1 X129.53 Y112.72 E.6585
G1 X129.53 Y126.244 E.44653
G1 X129.53 Y134.874 E.28494
G1 X129.507 Y135.466 E.01956
G1 X129.386 Y136.161 E.02329
G1 X129.173 Y136.809 E.02252
G1 X128.857 Y137.435 E.02315
G1 X128.432 Y138.029 E.02412
G1 X127.962 Y138.54 E.02292
G1 X127.405 Y138.974 E.02331
G1 X126.793 Y139.321 E.02323
G1 X126.351 Y139.491 E.01564
G1 X125.685 Y139.687 E.02292
G1 X124.982 Y139.774 E.02339
G1 X95.081 Y139.771 E.98725
G1 X94.435 Y139.696 E.02147
G1 X93.864 Y139.568 E.01932
G1 X93.318 Y139.358 E.01931
G1 X92.796 Y139.095 E.0193
G1 X92.221 Y138.682 E.02337
G1 X91.71 Y138.212 E.02292
G1 X91.276 Y137.655 E.02331
G1 X91.042 Y137.243 E.01564
G1 X90.751 Y136.613 E.02291
G1 X90.562 Y135.932 E.02333
G1 X90.476 Y135.232 E.02329
G1 X90.47 Y85.126 E1.65436
G1 X90.479 Y84.832 E.00971
G1 X90.554 Y84.185 E.02151
G1 X90.682 Y83.614 E.01932
G1 X90.942 Y82.956 E.02336
G1 X91.274 Y82.347 E.0229
G1 X91.709 Y81.79 E.02333
G1 X92.028 Y81.485 E.01457
G1 X92.593 Y81.027 E.02401
G1 X93.187 Y80.689 E.02257
G1 X93.842 Y80.438 E.02316
G1 X94.491 Y80.294 E.02195
G1 X95.255 Y80.22 E.02534
G1 X124.958 Y80.225 E.98071
G1 X125.682 Y80.312 E.02408
G1 X126.36 Y80.5 E.02323
G1 X127.001 Y80.784 E.02315
G1 X127.784 Y81.307 E.03109
G1 X128.29 Y81.789 E.02307
G1 X128.85 Y82.545 E.03106
G1 X129.165 Y83.169 E.02308
G1 X129.437 Y84.068 E.03101
G1 X129.53 Y85.01 E.03125
G1 X129.53 Y107.22 E.73331
G1 E-3.5 F3600
;WIPE_START
G1 F7200
G1 X129.53 Y107.28 E-.0285
G1 X126.432 Y107.282 E-1.4715
;WIPE_END
G1 X128.486 Y84.105 F9000
G1 E5 F2400
;TYPE:Solid infill
;WIDTH:0.440175
G1 F1200
G1 X125.893 Y81.512 E.12113
G1 X125.469 Y81.395 E.01453
G1 X125.179 Y81.36 E.00965
G1 X128.381 Y84.561 E.14956
G1 X128.43 Y85.173 E.02028
G1 X124.583 Y81.325 E.17973
G1 X124.021 Y81.325 E.01856
G1 X128.43 Y85.734 E.20596
G1 X128.43 Y86.296 E.01856
G1 X123.459 Y81.325 E.23222
G1 X122.897 Y81.325 E.01856
G1 X128.43 Y86.858 E.25847
G1 X128.43 Y87.42 E.01856
G1 X122.335 Y81.325 E.28472
G1 X121.773 Y81.325 E.01856
G1 X128.43 Y87.982 E.31098
G1 X128.43 Y88.543 E.01853
G1 X121.211 Y81.325 E.33721
G1 X120.649 Y81.325 E.01856
G1 X128.43 Y89.105 E.36346
G1 X128.43 Y89.667 E.01856
G1 X120.087 Y81.324 E.38974
G1 X119.526 Y81.324 E.01853
G1 X128.43 Y90.229 E.41597
G1 X128.43 Y90.791 E.01856
G1 X118.964 Y81.324 E.44222
G1 X118.402 Y81.324 E.01856
G1 X128.43 Y91.352 E.46845
G1 X128.43 Y91.914 E.01856
G1 X117.84 Y81.324 E.4947
G1 X117.278 Y81.324 E.01856
G1 X128.43 Y92.476 E.52096
G1 X128.43 Y93.038 E.01856
G1 X116.716 Y81.324 E.54721
G1 X116.154 Y81.324 E.01856
G1 X128.43 Y93.6 E.57346
G1 X128.43 Y94.161 E.01853
G1 X115.592 Y81.324 E.59969
G1 X115.03 Y81.324 E.01856
G1 X128.43 Y94.723 E.62595
G1 X128.43 Y95.285 E.01856
G1 X114.468 Y81.323 E.65222
G1 X113.907 Y81.323 E.01853
G1 X128.43 Y95.847 E.67845
G1 X128.43 Y96.409 E.01856
G1 X113.345 Y81.323 E.70471
G1 X112.783 Y81.323 E.01856
G1 X128.43 Y96.971 E.73096
G1 X128.43 Y97.532 E.01853
G1 X112.221 Y81.323 E.75719
G1 X111.659 Y81.323 E.01856
G1 X128.43 Y98.094 E.78344
G1 X128.43 Y98.656 E.01856
G1 X111.097 Y81.323 E.8097
G1 X110.535 Y81.323 E.01856
G1 X128.43 Y99.218 E.83595
G1 X128.43 Y99.78 E.01856
G1 X109.973 Y81.323 E.8622
G1 X109.411 Y81.322 E.01856
G1 X128.43 Y100.341 E.88846
G1 X128.43 Y100.903 E.01856
G1 X108.849 Y81.322 E.91471
G1 X108.287 Y81.322 E.01856
G1 X128.43 Y101.465 E.94096
G1 X128.43 Y102.027 E.01856
G1 X107.726 Y81.322 E.96719
G1 X107.164 Y81.322 E.01856
G1 X128.43 Y102.589 E.99345
G1 X128.43 Y103.15 E.01853
G1 X106.602 Y81.322 E1.01968
G1 X106.04 Y81.322 E.01856
G1 X128.43 Y103.712 E1.04593
G1 X128.43 Y104.274 E.01856
G1 X105.478 Y81.322 E1.07218
G1 X104.916 Y81.322 E.01856
G1 X128.43 Y104.836 E1.09844
G1 X128.43 Y105.398 E.01856
G1 X104.354 Y81.322 E1.12469
G1 X103.792 Y81.321 E.01856
G1 X128.43 Y105.959 E1.15094
G1 X128.43 Y106.181 E.00733
G1 X128.09 Y106.181 E.01123
G1 X103.23 Y81.321 E1.16131
G1 X102.668 Y81.321 E.01856
G1 X127.529 Y106.181 E1.16134
G1 X126.967 Y106.182 E.01856
G1 X102.106 Y81.321 E1.16136
G1 X101.545 Y81.321 E.01853
G1 X126.406 Y106.182 E1.16136
G1 X125.844 Y106.183 E.01856
G1 X100.983 Y81.321 E1.16138
G1 X100.421 Y81.321 E.01856
G1 X125.283 Y106.183 E1.16141
G1 X124.721 Y106.183 E.01856
G1 X99.859 Y81.321 E1.16141
G1 X99.297 Y81.321 E.01856
G1 X124.16 Y106.184 E1.16145
G1 X123.598 Y106.184 E.01856
G1 X98.735 Y81.321 E1.16145
G1 X98.173 Y81.32 E.01856
G1 X123.037 Y106.184 E1.1615
G1 X122.475 Y106.185 E.01856
G1 X97.611 Y81.32 E1.16152
G1 X97.049 Y81.32 E.01856
G1 X121.914 Y106.185 E1.16155
G1 X121.353 Y106.185 E.01853
G1 X96.487 Y81.32 E1.16157
G1 X95.926 Y81.32 E.01853
G1 X120.791 Y106.186 E1.16157
G1 X120.23 Y106.186 E.01853
G1 X95.364 Y81.32 E1.16159
G1 X94.833 Y81.351 E.01757
G1 X119.668 Y106.186 E1.16015
G1 X119.107 Y106.187 E.01853
G1 X94.354 Y81.434 E1.15632
G1 X93.929 Y81.571 E.01475
G1 X118.545 Y106.187 E1.14992
G1 X117.984 Y106.187 E.01853
G1 X93.547 Y81.75 E1.14155
G1 X93.189 Y81.955 E.01363
G1 X117.422 Y106.188 E1.13202
G1 X116.861 Y106.188 E.01853
G1 X92.873 Y82.2 E1.12058
G1 X92.585 Y82.474 E.01313
G1 X116.299 Y106.188 E1.10778
G1 X115.738 Y106.189 E.01853
G1 X92.331 Y82.781 E1.09346
G1 X92.099 Y83.111 E.01332
G1 X115.177 Y106.189 E1.07807
G1 X114.615 Y106.189 E.01856
G1 X91.911 Y83.485 E1.0606
G1 X91.749 Y83.885 E.01426
G1 X114.054 Y106.19 E1.04196
G1 X113.492 Y106.19 E.01856
G1 X91.643 Y84.341 E1.02066
G1 X91.588 Y84.656 E.01056
G1 X91.579 Y84.839 E.00605
G1 X112.931 Y106.19 E.99742
G1 X112.369 Y106.191 E.01856
G1 X91.57 Y85.392 E.97161
G1 X91.57 Y85.953 E.01853
G1 X111.808 Y106.191 E.9454
G1 X111.246 Y106.191 E.01856
G1 X91.57 Y86.515 E.91915
G1 X91.57 Y87.077 E.01856
G1 X110.685 Y106.192 E.89294
G1 X110.123 Y106.192 E.01856
G1 X91.57 Y87.639 E.86669
G1 X91.57 Y88.201 E.01856
G1 X109.563 Y106.194 E.84053
G1 X109.075 Y106.267 E.0163
G1 X91.57 Y88.763 E.81771
G1 X91.57 Y89.325 E.01856
G1 X108.636 Y106.39 E.7972
G1 X108.228 Y106.544 E.01441
G1 X91.57 Y89.886 E.77816
G1 X91.571 Y90.448 E.01856
G1 X107.87 Y106.747 E.76139
G1 X107.524 Y106.963 E.01347
G1 X91.571 Y91.01 E.74523
G1 X91.571 Y91.572 E.01856
G1 X107.229 Y107.23 E.73145
G1 X107.001 Y107.441 E.01026
G1 X106.949 Y107.512 E.00291
G1 X91.571 Y92.134 E.71837
G1 X91.571 Y92.696 E.01856
G1 X106.712 Y107.837 E.7073
G1 X106.53 Y108.088 E.01024
G1 X106.489 Y108.176 E.00321
G1 X91.571 Y93.258 E.69688
G1 X91.571 Y93.82 E.01856
G1 X106.311 Y108.56 E.68857
G1 X106.166 Y108.976 E.01455
G1 X91.571 Y94.381 E.68179
G1 X91.571 Y94.943 E.01856
G1 X106.064 Y109.436 E.67703
G1 X106.037 Y109.649 E.00709
G1 X106.032 Y109.966 E.01047
G1 X91.571 Y95.505 E.67553
G1 X91.571 Y96.067 E.01856
G1 X106.284 Y110.78 E.68731
G1 E-3.5 F3600
;WIPE_START
G1 F7200
G1 X104.051 Y108.547 E-1.5
;WIPE_END
G1 X128.246 Y113.64 F9000
G1 E5 F2400
G1 F1200
G1 X128.43 Y113.825 E.00862
G1 X128.43 Y114.386 E.01853
G1 X127.862 Y113.819 E.02651
G1 X127.3 Y113.818 E.01856
G1 X128.43 Y114.948 E.05279
G1 X128.43 Y115.51 E.01856
G1 X126.738 Y113.818 E.07904
G1 X126.176 Y113.818 E.01856
G1 X128.43 Y116.072 E.10529
G1 X128.43 Y116.634 E.01856
G1 X125.614 Y113.817 E.13157
G1 X125.052 Y113.817 E.01856
G1 X128.43 Y117.195 E.1578
G1 X128.43 Y117.757 E.01856
G1 X124.49 Y113.817 E.18405
G1 X123.927 Y113.816 E.0186
G1 X128.43 Y118.319 E.21035
G1 X128.43 Y118.881 E.01856
G1 X123.365 Y113.816 E.23661
G1 X122.803 Y113.816 E.01856
G1 X128.43 Y119.443 E.26286
