; generated by PrusaSlicer 2.7.1 on 2024-01-24 at 22:25:58 UTC

; 

; external perimeters extrusion width = 0.42mm
; perimeters extrusion width = 0.44mm
; infill extrusion width = 0.44mm
; solid infill extrusion width = 0.44mm
; top infill extrusion width = 0.40mm
; first layer extrusion width = 0.44mm

;TYPE:Custom
M413 S0 ;  disable power loss recovery
G90 ; use absolute coordinates
M83 ; extruder relative mode
M140 S55 ; set final bed temp
M104 S150 ; set temporary nozzle temp to prevent oozing during homing
G4 S10 ; allow partial nozzle warmup
G28 ; home all axis
G1 Z50 F240
G1 X2 Y10 F3000
M104 S215 ; set final nozzle temp
M190 S55 ; wait for bed temp to stabilize
M109 S215 ; wait for nozzle temp to stabilize
G1 Z0.28 F240
G92 E0
G1 Y140 E10 F1500 ; prime the nozzle
G1 X2.3 F5000
G92 E0
G1 Y10 E10 F1200 ; prime the nozzle
G92 E0
M420 S1 ; use the probed mesh
G21 ; set units to millimeters
G90 ; use absolute coordinates
M83 ; use relative distances for extrusion
; Filament gcode
M107
;LAYER_CHANGE
;Z:0.2
;HEIGHT:0.2
;BEFORE_LAYER_CHANGE
G92 E0
;0.2


G1 E-5 F3600
G1 Z.2 F9000
;AFTER_LAYER_CHANGE
;0.2
G1 X85.748 Y76.793
G1 Z.2
G1 E5 F2400
M204 S500
;TYPE:Skirt/Brim
;WIDTH:0.44
G1 F1200
G1 X86.647 Y75.849 E.04304
G1 X87.685 Y74.997 E.04434
G1 X88.787 Y74.299 E.04307
G1 X90.001 Y73.725 E.04434
G1 X91.239 Y73.316 E.04305
G1 X92.557 Y73.054 E.04437
G1 X94 Y72.956 E.04775
G1 X126.142 Y72.958 E1.06124
G1 X127.966 Y73.137 E.06051
G1 X129.77 Y73.636 E.0618
G1 X130.743 Y74.055 E.03498
G1 X131.67 Y74.566 E.03495
G1 X133.142 Y75.658 E.06051
G1 X134.433 Y77.013 E.06179
G1 X135.053 Y77.872 E.03498
G1 X135.585 Y78.787 E.03495
G1 X136.286 Y80.481 E.06053
G1 X136.696 Y82.307 E.06179
G1 X136.794 Y83.75 E.04775
G1 X136.792 Y136.392 E1.7381
G1 X136.696 Y137.693 E.04307
G1 X136.434 Y139.01 E.04434
G1 X136.114 Y140.02 E.03498
G1 X135.585 Y141.212 E.04306
G1 X134.895 Y142.364 E.04434
G1 X134.092 Y143.392 E.04307
G1 X133.142 Y144.342 E.04436
G1 X132.115 Y145.144 E.04302
G1 X130.962 Y145.835 E.04438
G1 X129.77 Y146.364 E.04306
G1 X128.484 Y146.754 E.04437
G1 X127.199 Y146.977 E.04306
G1 X126 Y147.044 E.03965
G1 X93.612 Y147.036 E1.06936
G1 X92.276 Y146.905 E.04432
G1 X91.24 Y146.685 E.03497
G1 X90.23 Y146.364 E.03499
G1 X89.038 Y145.835 E.04306
G1 X87.886 Y145.145 E.04434
G1 X86.858 Y144.342 E.04307
G1 X85.748 Y143.207 E.05242
G1 X84.948 Y142.128 E.04435
G1 X84.305 Y140.993 E.04307
G1 X83.714 Y139.519 E.05243
G1 X83.387 Y138.217 E.04432
G1 X83.228 Y136.922 E.04308
G1 X83.208 Y83.608 E1.76028
G1 X83.273 Y82.551 E.03497
G1 X83.496 Y81.266 E.04306
G1 X83.886 Y79.981 E.04434
G1 X84.415 Y78.789 E.04306
G1 X84.947 Y77.873 E.03497
G1 X85.712 Y76.842 E.04239
G1 X86.027 Y77.081 F9000
G1 F1200
G1 X86.048 Y77.053 E.00116
G1 X86.921 Y76.137 E.04178
G1 X87.914 Y75.321 E.04244
G1 X88.983 Y74.645 E.04176
G1 X90.144 Y74.095 E.04242
G1 X91.345 Y73.698 E.04176
G1 X92.605 Y73.448 E.04241
G1 X94 Y73.353 E.04617
G1 X126.132 Y73.355 E1.06091
G1 X127.898 Y73.528 E.05859
G1 X129.627 Y74.007 E.05924
G1 X130.564 Y74.409 E.03366
G1 X131.457 Y74.901 E.03366
G1 X132.883 Y75.958 E.05861
G1 X134.12 Y77.258 E.05925
G1 X134.717 Y78.085 E.03368
G1 X135.23 Y78.966 E.03366
G1 X135.909 Y80.605 E.05858
G1 X136.302 Y82.356 E.05925
G1 X136.397 Y83.75 E.04613
G1 X136.395 Y136.383 E1.7378
G1 X136.302 Y137.644 E.04175
G1 X136.052 Y138.904 E.04241
G1 X135.743 Y139.877 E.03371
G1 X135.231 Y141.033 E.04174
G1 X134.57 Y142.136 E.04246
G1 X133.791 Y143.133 E.04178
G1 X132.883 Y144.041 E.0424
G1 X131.665 Y144.967 E.05052
G1 X130.564 Y145.591 E.04178
G1 X129.377 Y146.082 E.04241
G1 X128.158 Y146.42 E.04177
G1 X126.887 Y146.608 E.04242
G1 X93.622 Y146.639 E1.09832
G1 X92.344 Y146.514 E.0424
G1 X91.346 Y146.302 E.03369
G1 X90.373 Y145.993 E.03371
G1 X89.217 Y145.481 E.04174
G1 X88.114 Y144.82 E.04246
G1 X87.117 Y144.041 E.04178
G1 X86.048 Y142.947 E.0505
G1 X85.283 Y141.916 E.04239
G1 X84.659 Y140.815 E.04178
G1 X84.091 Y139.395 E.0505
G1 X83.779 Y138.149 E.04241
G1 X83.624 Y136.893 E.04178
G1 X83.605 Y83.618 E1.759
G1 X83.668 Y82.599 E.03371
G1 X83.884 Y81.353 E.04175
G1 X84.257 Y80.124 E.04241
G1 X84.769 Y78.967 E.04177
G1 X85.43 Y77.865 E.04243
G1 X85.99 Y77.129 E.03054
G1 E-3.5 F3600
;WIPE_START
G1 F7200
G1 X86.027 Y77.081 E-.02879
G1 X86.048 Y77.053 E-.01663
G1 X86.921 Y76.137 E-.60106
G1 X87.914 Y75.321 E-.6105
G1 X88.346 Y75.047 E-.24302
;WIPE_END
G1 X91.049 Y81.075 F9000
G1 E5 F2400
;TYPE:Perimeter
;WIDTH:0.439999
G1 F1200
G1 X91.349 Y80.789 E.01369
G1 X91.777 Y80.444 E.01815
G1 X92.297 Y80.149 E.01974
G1 X92.684 Y80 E.01369
G1 X93.211 Y79.845 E.01814
G1 X93.817 Y79.77 E.02016
G1 X126.183 Y79.77 E1.06864
G1 X126.765 Y79.842 E.01936
G1 X127.523 Y80.072 E.02615
G1 X128.212 Y80.44 E.02579
G1 X128.815 Y80.935 E.02576
G1 X129.318 Y81.548 E.02618
G1 X129.595 Y82.037 E.01856
G1 X129.862 Y82.783 E.02616
G1 X129.935 Y83.279 E.01655
G1 X129.98 Y83.882 E.01996
G1 X129.986 Y136.124 E1.72489
G1 X129.966 Y136.628 E.01665
G1 X129.862 Y137.23 E.02017
G1 X129.681 Y137.748 E.01812
G1 X129.414 Y138.296 E.02013
G1 X129.056 Y138.79 E.02014
G1 X128.685 Y139.194 E.01811
G1 X128.213 Y139.562 E.01976
G1 X127.851 Y139.767 E.01374
G1 X127.354 Y139.997 E.01808
G1 X126.777 Y140.157 E.01977
G1 X126.183 Y140.23 E.01976
G1 X94.126 Y140.236 E1.05843
G1 X93.377 Y140.174 E.02481
G1 X92.845 Y140.058 E.01798
G1 X92.278 Y139.832 E.02015
G1 X91.797 Y139.57 E.01808
G1 X91.325 Y139.201 E.01978
G1 X91.039 Y138.901 E.01369
G1 X90.694 Y138.474 E.01813
G1 X90.399 Y137.953 E.01977
G1 X90.25 Y137.566 E.01369
G1 X90.095 Y137.039 E.01814
G1 X90.02 Y136.433 E.02016
G1 X90.014 Y83.876 E1.73529
G1 X90.077 Y83.127 E.02482
G1 X90.192 Y82.595 E.01797
G1 X90.418 Y82.028 E.02015
G1 X90.68 Y81.547 E.01808
G1 X91.012 Y81.122 E.01781
G1 X91.56 Y80.111 F9000
G1 F1200
G1 X92.127 Y79.789 E.02153
G1 X92.542 Y79.629 E.01469
G1 X93.138 Y79.454 E.02051
G1 X93.793 Y79.373 E.02179
G1 X126.207 Y79.373 E1.07022
G1 X126.848 Y79.452 E.02132
G1 X127.676 Y79.703 E.02857
G1 X128.433 Y80.108 E.02835
G1 X129.097 Y80.653 E.02836
G1 X129.646 Y81.322 E.02857
G1 X129.957 Y81.871 E.02083
G1 X130.249 Y82.686 E.02858
G1 X130.328 Y83.221 E.01786
G1 X130.377 Y83.882 E.02188
G1 X130.383 Y136.124 E1.72489
G1 X130.375 Y136.399 E.00908
G1 X130.305 Y136.997 E.01988
G1 X130.188 Y137.521 E.01773
G1 X129.995 Y138.021 E.0177
G1 X129.754 Y138.5 E.0177
G1 X129.369 Y139.035 E.02176
G1 X128.948 Y139.492 E.02052
G1 X128.434 Y139.893 E.02152
G1 X128.047 Y140.112 E.01468
G1 X127.483 Y140.373 E.02052
G1 X126.855 Y140.547 E.02152
G1 X126.207 Y140.627 E.02156
G1 X94.126 Y140.633 E1.05923
G1 X93.851 Y140.625 E.00908
G1 X93.253 Y140.555 E.01988
G1 X92.729 Y140.438 E.01773
G1 X92.117 Y140.195 E.02174
G1 X91.572 Y139.898 E.02049
G1 X91.058 Y139.496 E.02154
G1 X90.751 Y139.174 E.01469
G1 X90.361 Y138.69 E.02052
G1 X90.039 Y138.123 E.02153
G1 X89.879 Y137.709 E.01465
G1 X89.704 Y137.112 E.02054
G1 X89.623 Y136.457 E.02179
G1 X89.617 Y83.876 E1.73608
G1 X89.625 Y83.601 E.00908
G1 X89.695 Y83.003 E.01988
G1 X89.812 Y82.479 E.01773
G1 X90.055 Y81.867 E.02174
G1 X90.352 Y81.322 E.02049
G1 X90.754 Y80.808 E.02154
G1 X91.075 Y80.501 E.01467
G1 X91.513 Y80.148 E.01857
G1 X91.343 Y79.777 F9000
;TYPE:External perimeter
G1 F1200
G1 X91.957 Y79.429 E.0233
G1 X92.399 Y79.259 E.01564
G1 X93.065 Y79.063 E.02292
G1 X93.768 Y78.976 E.02339
G1 X126.232 Y78.976 E1.07187
G1 X126.93 Y79.062 E.02322
G1 X127.829 Y79.335 E.03102
G1 X128.655 Y79.776 E.03092
G1 X129.379 Y80.371 E.03094
G1 X129.975 Y81.097 E.03101
G1 X130.319 Y81.705 E.02306
G1 X130.636 Y82.589 E.03101
G1 X130.774 Y83.52 E.03107
G1 X130.774 Y83.882 E.01195
G1 X130.78 Y136.124 E1.72489
G1 X130.771 Y136.419 E.00974
G1 X130.696 Y137.065 E.02147
G1 X130.568 Y137.636 E.01932
G1 X130.358 Y138.182 E.01931
G1 X130.095 Y138.704 E.0193
G1 X129.682 Y139.279 E.02337
G1 X129.212 Y139.79 E.02292
G1 X128.655 Y140.224 E.02331
G1 X128.243 Y140.458 E.01564
G1 X127.613 Y140.749 E.02291
G1 X126.932 Y140.938 E.02333
G1 X126.232 Y141.024 E.02329
G1 X94.126 Y141.03 E1.06005
G1 X93.831 Y141.021 E.00974
G1 X93.185 Y140.946 E.02147
G1 X92.614 Y140.818 E.01932
G1 X91.956 Y140.558 E.02336
G1 X91.347 Y140.226 E.0229
G1 X90.79 Y139.791 E.02333
G1 X90.464 Y139.448 E.01562
G1 X90.027 Y138.907 E.02296
G1 X89.679 Y138.293 E.0233
G1 X89.509 Y137.851 E.01564
G1 X89.313 Y137.185 E.02292
G1 X89.226 Y136.482 E.02339
G1 X89.22 Y83.876 E1.73691
G1 X89.229 Y83.581 E.00974
G1 X89.304 Y82.935 E.02147
G1 X89.432 Y82.364 E.01932
G1 X89.692 Y81.706 E.02336
G1 X90.024 Y81.097 E.0229
G1 X90.459 Y80.54 E.02333
G1 X90.802 Y80.214 E.01562
G1 X91.296 Y79.815 E.02097
G1 E-3.5 F3600
;WIPE_START
G1 F7200
G1 X91.343 Y79.777 E-.02871
G1 X91.957 Y79.429 E-.33524
G1 X92.399 Y79.259 E-.22494
G1 X93.065 Y79.063 E-.32976
G1 X93.768 Y78.976 E-.33647
G1 X94.284 Y78.976 E-.24488
;WIPE_END
G1 X100.041 Y91.344 F9000
G1 E5 F2400
;TYPE:Perimeter
G1 F1200
G1 X100.88 Y91.241 E.02791
G1 X101.67 Y91.283 E.02612
G1 X102.62 Y91.509 E.03224
G1 X103.528 Y91.924 E.03296
G1 X104.335 Y92.511 E.03295
G1 X105.01 Y93.246 E.03295
G1 X105.525 Y94.1 E.03293
G1 X105.862 Y95.039 E.03294
G1 X106.005 Y96.026 E.03293
G1 X105.95 Y97.023 E.03297
G1 X105.699 Y97.988 E.03292
G1 X105.262 Y98.885 E.03294
G1 X104.655 Y99.677 E.03295
G1 X103.903 Y100.333 E.03295
G1 X103.064 Y100.813 E.03191
G1 X102.174 Y101.114 E.03102
G1 X101.896 Y101.18 E.00943
G1 X101.099 Y101.259 E.02644
G1 X100.104 Y101.18 E.03296
G1 X99.145 Y100.904 E.03295
G1 X98.26 Y100.445 E.03292
G1 X97.483 Y99.818 E.03297
G1 X96.846 Y99.051 E.03292
G1 X96.373 Y98.172 E.03296
G1 X96.084 Y97.217 E.03294
G1 X95.992 Y96.449 E.02554
G1 X96.05 Y95.477 E.03215
G1 X96.301 Y94.512 E.03292
G1 X96.738 Y93.615 E.03294
G1 X97.345 Y92.823 E.03295
G1 X98.097 Y92.167 E.03295
G1 X98.963 Y91.672 E.03293
G1 X99.911 Y91.36 E.03295
G1 X99.981 Y91.351 E.00233
G1 X100.095 Y91.731 F9000
G1 F1200
G1 X100.92 Y91.636 E.02742
G1 X101.642 Y91.679 E.02388
G1 X102.522 Y91.894 E.02991
G1 X103.355 Y92.282 E.03034
G1 X104.095 Y92.827 E.03034
G1 X104.712 Y93.508 E.03034
G1 X105.181 Y94.298 E.03033
G1 X105.485 Y95.165 E.03033
G1 X105.611 Y96.076 E.03037
G1 X105.554 Y96.993 E.03034
G1 X105.317 Y97.881 E.03035
G1 X104.908 Y98.704 E.03034
G1 X104.345 Y99.429 E.03031
G1 X103.648 Y100.029 E.03037
G1 X102.874 Y100.464 E.02931
G1 X102.057 Y100.735 E.02842
G1 X101.383 Y100.832 E.02248
G1 X100.903 Y100.86 E.01588
G1 X100.143 Y100.784 E.02522
G1 X99.262 Y100.525 E.03032
G1 X98.45 Y100.096 E.03032
G1 X97.738 Y99.514 E.03036
G1 X97.156 Y98.803 E.03034
G1 X96.726 Y97.991 E.03034
G1 X96.466 Y97.109 E.03036
G1 X96.387 Y96.41 E.02323
G1 X96.446 Y95.507 E.02988
G1 X96.683 Y94.619 E.03035
G1 X97.092 Y93.796 E.03034
G1 X97.655 Y93.071 E.03031
G1 X98.352 Y92.471 E.03037
G1 X99.153 Y92.021 E.03033
G1 X100.028 Y91.739 E.03035
G1 X100.035 Y91.738 E.00023
G1 X100.145 Y92.119 F9000
;TYPE:External perimeter
G1 F1200
G1 X100.96 Y92.031 E.02707
G1 X101.613 Y92.075 E.02161
G1 X102.424 Y92.279 E.02761
G1 X103.183 Y92.64 E.02775
G1 X103.855 Y93.144 E.02773
G1 X104.414 Y93.771 E.02773
G1 X104.838 Y94.497 E.02776
G1 X105.109 Y95.292 E.02773
G1 X105.217 Y96.125 E.02773
G1 X105.158 Y96.963 E.02774
G1 X104.935 Y97.773 E.02774
G1 X104.555 Y98.522 E.02773
G1 X104.034 Y99.182 E.02776
G1 X103.393 Y99.725 E.02774
G1 X102.684 Y100.116 E.02673
G1 X101.94 Y100.355 E.0258
G1 X101.344 Y100.437 E.01986
G1 X100.942 Y100.465 E.01331
G1 X100.183 Y100.389 E.02519
G1 X99.379 Y100.145 E.02774
G1 X98.64 Y99.747 E.02771
G1 X97.994 Y99.21 E.02774
G1 X97.467 Y98.556 E.02773
G1 X97.08 Y97.81 E.02775
G1 X96.848 Y97.002 E.02776
G1 X96.782 Y96.37 E.02098
G1 X96.842 Y95.537 E.02757
G1 X97.065 Y94.727 E.02774
G1 X97.445 Y93.978 E.02773
G1 X97.966 Y93.318 E.02776
G1 X98.607 Y92.775 E.02774
G1 X99.343 Y92.37 E.02774
G1 X100.087 Y92.136 E.02575
G1 E-3.5 F3600
;WIPE_START
G1 F7200
G1 X100.145 Y92.119 E-.02871
G1 X100.96 Y92.031 E-.38938
G1 X101.613 Y92.075 E-.31088
G1 X102.424 Y92.279 E-.39723
G1 X103.135 Y92.617 E-.3738
;WIPE_END
G1 X100.041 Y118.844 F9000
G1 E5 F2400
;TYPE:Perimeter
G1 F1200
G1 X100.88 Y118.741 E.02791
G1 X101.67 Y118.783 E.02612
G1 X102.535 Y118.987 E.02934
G1 X102.806 Y119.077 E.00943
G1 X103.5 Y119.411 E.02543
G1 X104.335 Y120.011 E.03395
G1 X105.01 Y120.746 E.03295
G1 X105.525 Y121.6 E.03293
G1 X105.862 Y122.539 E.03294
G1 X106.005 Y123.526 E.03293
G1 X105.95 Y124.523 E.03297
G1 X105.699 Y125.488 E.03292
G1 X105.262 Y126.385 E.03294
G1 X104.655 Y127.177 E.03295
G1 X103.903 Y127.833 E.03295
G1 X103.037 Y128.328 E.03293
G1 X102.089 Y128.64 E.03295
G1 X101.099 Y128.759 E.03292
G1 X100.104 Y128.68 E.03296
G1 X99.145 Y128.404 E.03295
G1 X98.26 Y127.945 E.03292
G1 X97.499 Y127.333 E.03224
G1 X96.977 Y126.738 E.02613
G1 X96.475 Y125.9 E.03225
G1 X96.138 Y124.961 E.03294
G1 X95.995 Y123.974 E.03293
G1 X96.05 Y122.977 E.03297
G1 X96.301 Y122.012 E.03292
G1 X96.738 Y121.115 E.03294
G1 X97.345 Y120.323 E.03295
G1 X98.097 Y119.667 E.03295
G1 X98.963 Y119.172 E.03293
G1 X99.911 Y118.86 E.03295
G1 X99.981 Y118.851 E.00233
G1 X100.095 Y119.231 F9000
G1 F1200
G1 X100.92 Y119.136 E.02742
G1 X101.642 Y119.179 E.02388
G1 X102.437 Y119.372 E.02701
G1 X103.328 Y119.769 E.03221
G1 X104.095 Y120.327 E.03132
G1 X104.712 Y121.008 E.03034
G1 X105.181 Y121.798 E.03033
G1 X105.485 Y122.665 E.03033
G1 X105.611 Y123.576 E.03037
G1 X105.554 Y124.493 E.03034
G1 X105.317 Y125.381 E.03035
G1 X104.908 Y126.204 E.03034
G1 X104.345 Y126.929 E.03031
G1 X103.648 Y127.529 E.03037
G1 X102.847 Y127.979 E.03033
G1 X101.972 Y128.261 E.03035
G1 X101.059 Y128.364 E.03034
G1 X100.144 Y128.284 E.03033
G1 X99.262 Y128.025 E.03035
G1 X98.45 Y127.596 E.03032
G1 X97.753 Y127.029 E.02967
G1 X97.28 Y126.482 E.02388
G1 X96.819 Y125.702 E.02992
G1 X96.515 Y124.835 E.03033
G1 X96.389 Y123.924 E.03037
G1 X96.446 Y123.007 E.03034
G1 X96.683 Y122.119 E.03035
G1 X97.092 Y121.296 E.03034
G1 X97.655 Y120.571 E.03031
G1 X98.352 Y119.971 E.03037
G1 X99.153 Y119.521 E.03033
G1 X100.028 Y119.239 E.03035
G1 X100.035 Y119.238 E.00023
G1 X100.145 Y119.619 F9000
;TYPE:External perimeter
G1 F1200
G1 X100.96 Y119.531 E.02707
G1 X101.613 Y119.575 E.02161
G1 X102.339 Y119.757 E.02471
G1 X103.156 Y120.126 E.0296
G1 X103.855 Y120.644 E.02873
G1 X104.414 Y121.271 E.02773
G1 X104.838 Y121.997 E.02776
G1 X105.109 Y122.792 E.02773
G1 X105.217 Y123.625 E.02773
G1 X105.158 Y124.463 E.02774
G1 X104.935 Y125.273 E.02774
G1 X104.555 Y126.022 E.02773
G1 X104.034 Y126.682 E.02776
G1 X103.393 Y127.225 E.02774
G1 X102.657 Y127.63 E.02774
G1 X101.855 Y127.881 E.02775
G1 X101.02 Y127.969 E.02772
G1 X100.183 Y127.889 E.02776
G1 X99.379 Y127.645 E.02774
G1 X98.64 Y127.247 E.02771
G1 X98.008 Y126.724 E.02709
G1 X97.583 Y126.226 E.02162
G1 X97.162 Y125.503 E.02762
G1 X96.891 Y124.708 E.02773
G1 X96.783 Y123.875 E.02773
G1 X96.842 Y123.037 E.02774
G1 X97.065 Y122.227 E.02774
G1 X97.445 Y121.478 E.02773
G1 X97.966 Y120.818 E.02776
G1 X98.607 Y120.275 E.02774
G1 X99.343 Y119.87 E.02774
G1 X100.087 Y119.636 E.02575
G1 E-3.5 F3600
;WIPE_START
G1 F7200
G1 X100.145 Y119.619 E-.02871
G1 X100.96 Y119.531 E-.38938
G1 X101.613 Y119.575 E-.31088
G1 X102.339 Y119.757 E-.35552
G1 X103.136 Y120.117 E-.41551
;WIPE_END
G1 X127.82 Y80.374 F9000
G1 E5 F2400
;TYPE:Solid infill
;WIDTH:0.442297
G1 F1200
G1 X128.599 Y81.154 E.03661
G1 X129.065 Y81.721 E.02437
G1 X129.316 Y82.164 E.01691
G1 X129.467 Y82.586 E.01488
G1 X127.162 Y80.282 E.10823
G1 X126.702 Y80.142 E.01597
G1 X126.423 Y80.108 E.00933
G1 X129.632 Y83.316 E.15068
G1 X129.674 Y83.602 E.0096
G1 X129.674 Y83.923 E.01066
G1 X125.827 Y80.076 E.18067
G1 X125.262 Y80.076 E.01876
G1 X129.674 Y84.488 E.2072
G1 X129.674 Y85.053 E.01876
G1 X124.697 Y80.076 E.23374
G1 X124.132 Y80.076 E.01876
G1 X129.674 Y85.618 E.26027
G1 X129.674 Y86.183 E.01876
G1 X123.567 Y80.076 E.28681
G1 X123.003 Y80.076 E.01873
G1 X129.674 Y86.748 E.31332
G1 X129.675 Y87.313 E.01876
G1 X122.438 Y80.076 E.33988
G1 X121.873 Y80.076 E.01876
G1 X129.675 Y87.877 E.36639
G1 X129.675 Y88.442 E.01876
G1 X121.308 Y80.076 E.39292
G1 X120.743 Y80.076 E.01876
G1 X129.675 Y89.007 E.41946
G1 X129.675 Y89.572 E.01876
G1 X120.179 Y80.076 E.44597
